material/.icons/material/chart-arc.svg

<svg xmlns="http://www.w3.org/2000/svg" viewBox="0 0 24 24"><path d="M16.18 19.6l-2.01-3.48c.98-.72 1.66-1.84 1.8-3.12H20a8.55 8.55 0 01-3.82 6.6M13 7.03V3c4.3.26 7.74 3.7 8 8h-4.03A4.488 4.488 0 0013 7.03M7 12.5c0 .64.13 1.25.38 1.8L3.9 16.31A8.42 8.42 0 013 12.5C3 7.97 6.54 4.27 11 4v4.03c-2.25.25-4 2.15-4 4.47m4.5 8.5c-2.97 0-5.58-1.5-7.1-3.82l3.48-2.01A4.47 4.47 0 0011.5 17c.64 0 1.25-.13 1.8-.38l2.01 3.48c-1.15.58-2.44.9-3.81.9z"/></svg>

<?xml version="1.0" encoding="UTF-8"?><!DOCTYPE svg PUBLIC "-//W3C//DTD SVG 1.1//EN" "http://www.w3.org/Graphics/SVG/1.1/DTD/svg11.dtd"><svg xmlns="http://www.w3.org/2000/svg" xmlns:xlink="http://www.w3.org/1999/xlink" version="1.1" id="mdi-chart-arc" width="24" height="24" viewBox="0 0 24 24"><path d="M16.18,19.6L14.17,16.12C15.15,15.4 15.83,14.28 15.97,13H20C19.83,15.76 18.35,18.16 16.18,19.6M13,7.03V3C17.3,3.26 20.74,6.7 21,11H16.97C16.74,8.91 15.09,7.26 13,7.03M7,12.5C7,13.14 7.13,13.75 7.38,14.3L3.9,16.31C3.32,15.16 3,13.87 3,12.5C3,7.97 6.54,4.27 11,4V8.03C8.75,8.28 7,10.18 7,12.5M11.5,21C8.53,21 5.92,19.5 4.4,17.18L7.88,15.17C8.7,16.28 10,17 11.5,17C12.14,17 12.75,16.87 13.3,16.62L15.31,20.1C14.16,20.68 12.87,21 11.5,21Z" /></svg>
